X: 2153
T: Şehnâz Aranağme (Devrihindî)
C: ?
O: Turkey
F: http://compmusic.upf.edu/node/140
N: sehnaz--aranagme--devrihindi--1--
N: makam= sehnaz
N: form= aranagme
N: usul= devrihindi = 7/4
M: 7/4
L: 1/16
K: C _7/8B ^1/4f ^c ^g
Q: 1/4=72
%%MIDI tuningsystem comma53
d'4 =c'4 =b4 c'd'c'b c'2d'2 c'3b a4  | \
w:  ARANAĞME  | 
=c'4 =b4 a4 bc'ba b2c'2 b3a g2e2  | 
w:   | 
e'd'd'=c' {e'}d'c'c'=b {d'}c'bba {c'}baag {b}aggf agfe d4  | 
w:   | 
e2f2 g2=b2 a2g2 g2=fg f2e2 e4 z4  | \
w:   | 
A2.d2 d2.a2 a4 a=ga=b g^3/4fga =fefg e4  | 
w:   | 
d2=g2 ^3/4f2a2 g4 gfga =fefg edef d4  | \
w:   | 
c2d2 e2=f2 d2a2 =g2f2 e2d2 a^gfe dcB2  | 
w:   | 
c2{e}d2 c2B2 B2A2 A2c4BA A8  | d'4 =c'4 =b4 c'd'c'b c'2d'2 c'3b a4  | 
w:   |  ARANAĞME  | 
=c'4 =b4 a4 bc'ba b2c'2 b3a g2e2  | \
w:   | 
e'd'd'=c' {e'}d'c'c'=b {d'}c'bba {c'}baag {b}aggf agfe d4  | 
w:   | 
e2f2 g2=b2 a2g2 g2=fg f2e2 e4 z4  | \
w:   | 
A2.d2 d2.a2 a4 a=ga=b g^3/4fga =fefg e4  | 
w:   | 
d2=g2 ^3/4f2a2 g4 gfga =fefg edef d4  | \
w:   | 
c2d2 e2=f2 d2a2 =g2f2 e2d2 a^gfe dcB2  | 
w:   | 
c2{e}d2 c2B2 B2A2 A2c4BA A8  | |


